X: 23770
T: Little Diamond, The
R: polka
M: 2/4
K: Dmajor
|:A>B AF|DF Ad|zA- AF|G/G/F EF/E/|
DE FG|AB cd|e>d ce|1 dA BG:|2 d2 d3/2||
|:e/|fd ge|fd cB|Ad c/c/d|fe ed/e/|
fd ge|fd cB|Ag ec|1 d2 d3/2:|2 d2- dB||

